X:1
T:Of all the birds that I have heard - Mundy
T:#
%%score [ 1 2 3 ]
L:1/8
Q:1/4=100
M:2/2
K:F
V:1 treble nm="Soprano " snm="S"
V:2 treble nm="Alto" snm="A"
V:3 treble-8 nm="Tenor" snm="T"
V:1
"^Of all the birds that I have heard""^John Mundy\n(c. 1555-1630)" A4 B2 c2 | d2 c2 e2 d2 | %2
w: Of all the|birds that I have|
 f2 c2 B2 A2 | F4 z2 G2 | A3 A A2 B2 |[M:2/2] c4 A4 | G4 z2 A2 | B3 B B2 c2 | d4 B4 | (A4 D4) | %10
w: heard, that I have|heard, The|night- in- gale doth|bear the|bell, the|night- in- gale doth|bear the|bell, *|
 z4 z2 E2 | FEFG A4 | E2 E2 A4 | z2 d2 ^cdec | d2 =c2 B2 G2 | A2 d2 c3 B | A2 G2 F2 c2 | %17
w: Whose|pret- ty, pret- ty tunes,|pret- ty tunes,|whose pret- ty, pret- ty|tunes, whose pret- ty|tunes All oth- er|birds ex- cel, all|
 B3 A G2 F2 | E2 F2 E4 | F2 A4 A2 | A4 A2 c2- | c2 =B2 A4 | z2 d4 c2 | =B2 z e dcBA | c2 =B2 A4 | %25
w: oth- er birds doth|far ex- cel,|But if such|voi- ces were|* not dear,|were not|dear, I would my mis- tress|sung so clear,|
 z4 z2 z g | fedc e2 d2 | c4 z2 z c | BAGF A2 G2 | F2 z A GFED | E2 z A ^F2 z d | =B2 A2 ^F16 |] %32
w: I|would my mis- tress sung so|clear, I|would my mis- tress sung so|clear, I would my mis- tress|sung so clear, so|clear, so clear.|
V:2
 z4 z4 | z4 z4 | A,4 B,2 C2 | D2 C2 E2 D2 | F4 D4 |[M:2/2] C6 D2 | E3 E E2 F2 | G6 E2 | D6 E2 | %9
w: ||Of all the|birds that I have|heard, have|heard, The|night- in- gale doth|bear the|bell, the|
 F3 F F2 G2 | A2 F2 E4 | z2 D2 FEFG | A2 G2 ^FGAF | A4 A2 GA | _BG A2 D2 E2 | F8 | z4 z2 A2 | %17
w: night- in- gale doth|bear the bell,|whose pret- ty, pret- ty|tunes, whose pret- ty, pret- ty|tunes, whose pret- ty,|pret- ty sweet pleas- ing|tunes|All|
 G3 F E2 D2 | (^C2 D4) C2 | D4 E2 (F2 | E4) F2 E2- | EF G4 (^F2- | F2 G2) A4 | G2 FE FG A2- | %24
w: oth- er birds doth|far * ex-|cel, but if|* such voi\-|* ces were not|* * dear,|I would my mis- tress sung|
 AA ^G2 z EDC | =B,A, D4 ^C2 | D2 (A,=B, C2) B,2 | z GFE DC F2 | D2 F3 F E2 | z AGF ED D2- | %30
w: * so clear, I would my|mis- tress sung so|clear, so * * clear,|I would my mis- tress sung|so clear, so clear,|I would my mis- tress sung|
 D2 (^C2 D4- | D4) D16 |] %32
w: * so *|* clear.|
V:3
 z4 z4 | z4 z4 | F4 G2 A2 | B2 A2 G4 | F6 G2 |[M:2/2][K:treble-8] A3 A A2 B2 | c4 A4 | G4 z2 A2 | %8
w: ||Of all the|birds that I|heard, The|night- in gale doth|bear the|bell, the|
 B3 B B2 c2 | d4 B4 | (A8 | D4) z2 d2 | ^cdec d2 D2 | FEFG A2 c2 | (B2 A2) G4 | F4 z2 d2 | %16
w: night- in- gale doth|bear the|bell,|* whose|pret- ty, pret- ty tunes, whose|pret- ty, pret- ty fine sweet|plea\- * sing|tunes All|
 c3 B A2 F2 | G4 c2 d2 | A2 (GF G2 A2) | D4 A2 d2- | d2 ^c2 d2 A2- | A2 (=B2 c2) (d2 | =B4) A4 | %23
w: oth- er birds doth|* far ex-|cel, ex\- * * *|cel, But if|* such voi- ces|* were * not|* dear,|
 e2 dc de f2 | e4 A2 z A | GFED F2 E2 | D2 (F2 C2 G2) | C2 z c BAGF | B2 d2 c4 | F4 G2 B2 | A4 D4 | %31
w: I would my mis- tress sung|so clear, I|would my mis- tress sung so|clear, so * *|clear, I would my mis- tress|sung so clear,|I would my|mis- tress|
 G2 ^F2 D16 |] %32
w: sung so clear.|

